X:21
T:Union Slow March. RH.021
R:March
S:Rev.R.Harrison’s MS,c1815,Cumbria
N:Originally transcribed with L:1/8. PJH.
O:England
A:Temple Sowerby,Cumbria
Z:vmp.Simon Wilson. Review PJH, 2008.
M:C|
L:1/16
Q:1/2=60
K:D
d’4 a3a f3f a3a|d’4 d3d d4 e4|\
f2e2 f2g2 b2a2 g2f2|e4 e3e e2f2 g2a2|!
b4 b3b bc’d’c’ e’d’c’b|a4 a3a a4 g3f|\
g4 g3g gaba c’bag|f4 f3f f4 e4|!
f3e d3e f3e f3g|a3f g3a b3a b3c’|\
d’3d’ a3a f3f d3d|a4 a3a a4 z4:|!
|:a4 f3f a4 f3f|a2g2 f2g2 b2a2 g2f2|\
g4 e3e g4 e3e|g2f2 e2f2 a2g2 f2e2|!
d2dd d2d2 f2ff f2f2|a2aa a2a2 d’4 z2(3abc’|\
.d’2.c’2 .b2.a2 .g2.f2 .e2.d2|a4 a3a a4 z4|!
a6g2 f2e2 f2d2|d’6c’2 b2a2 b2c’2|\
b3b a3a f3f a3a|d’4 d’3d’ d’4 z4:|

